X: 5769
T: Cairn O'Mohr
R: jig
M: 6/8
K: Dmajor
BfB gBf|BfB ecA|BfB gBf|a2g fdB|
BfB gBf|BfB ecA|Bcd cde|dBA B3||
DFB AFC|B,DG FDA,|B,CD CDE|DEF EFG|
DFB AFC|B,DG FDA,|B,CD CDE|DB,B,B,3||

